packages/icons/src/inner-shadow.svg

<svg width="15" height="15" viewBox="0 0 15 15" fill="none" xmlns="http://www.w3.org/2000/svg">
  <path
    fill-rule="evenodd"
    clip-rule="evenodd"
    d="M0.877075 7.49988C0.877075 3.84219 3.84222 0.877045 7.49991 0.877045C11.1576 0.877045 14.1227 3.84219 14.1227 7.49988C14.1227 11.1575 11.1576 14.1227 7.49991 14.1227C3.84222 14.1227 0.877075 11.1575 0.877075 7.49988ZM7.49991 1.82704C4.36689 1.82704 1.82708 4.36686 1.82708 7.49988C1.82708 10.6329 4.36689 13.1727 7.49991 13.1727C10.6329 13.1727 13.1727 10.6329 13.1727 7.49988C13.1727 4.36686 10.6329 1.82704 7.49991 1.82704Z"
    fill="currentColor"
  />
  <path
    opacity=".05"
    fill-rule="evenodd"
    clip-rule="evenodd"
    d="M12.1619 3.85182C8.35817 4.88918 4.88936 8.358 3.85199 12.1617L3.3696 12.0301C4.45356 8.05564 8.05581 4.45339 12.0303 3.36943L12.1619 3.85182Z"
    fill="currentColor"
  />
  <path
    opacity=".1"
    fill-rule="evenodd"
    clip-rule="evenodd"
    d="M11.8807 3.42707C8.03441 4.50542 4.50561 8.03422 3.42726 11.8805L2.94582 11.7456C4.07129 7.73121 7.7314 4.0711 11.7458 2.94563L11.8807 3.42707Z"
    fill="currentColor"
  />
  <path
    opacity=".15"
    fill-rule="evenodd"
    clip-rule="evenodd"
    d="M11.5201 3.02556C7.69092 4.16199 4.16779 7.68323 3.02805 11.512L2.54883 11.3694C3.73676 7.37869 7.38659 3.73076 11.3778 2.54623L11.5201 3.02556Z"
    fill="currentColor"
  />
  <path
    opacity=".2"
    fill-rule="evenodd"
    clip-rule="evenodd"
    d="M11.0468 2.66169C7.31117 3.87664 3.87918 7.3079 2.66298 11.0434L2.18754 10.8886C3.45324 7.00109 7.00445 3.45062 10.8921 2.18621L11.0468 2.66169Z"
    fill="currentColor"
  />
  <path
    opacity=".25"
    fill-rule="evenodd"
    clip-rule="evenodd"
    d="M10.5201 2.32365C6.92091 3.61447 3.62391 6.90876 2.32845 10.5073L1.858 10.338C3.20398 6.59909 6.61155 3.19424 10.3513 1.85301L10.5201 2.32365Z"
    fill="currentColor"
  />
  <path
    opacity=".3"
    fill-rule="evenodd"
    clip-rule="evenodd"
    d="M9.90222 2.03122C6.50003 3.39465 3.39968 6.49367 2.03399 9.89551L1.56998 9.70924C2.98651 6.18076 6.18728 2.98133 9.71622 1.5671L9.90222 2.03122Z"
    fill="currentColor"
  />
  <path
    opacity=".35"
    fill-rule="evenodd"
    clip-rule="evenodd"
    d="M9.20727 1.78873C6.06136 3.20349 3.21103 6.05203 1.79331 9.19738L1.33747 8.99192C2.80536 5.73528 5.74485 2.7976 9.0022 1.33272L9.20727 1.78873Z"
    fill="currentColor"
  />
  <path
    opacity=".4"
    fill-rule="evenodd"
    clip-rule="evenodd"
    d="M8.40713 1.62085C5.59323 3.05117 3.05794 5.58509 1.62544 8.39847L1.17987 8.1716C2.66036 5.26397 5.27232 2.6534 8.18057 1.17513L8.40713 1.62085Z"
    fill="currentColor"
  />
  <path
    opacity=".45"
    fill-rule="evenodd"
    clip-rule="evenodd"
    d="M7.46207 1.56747C5.08689 2.94695 2.95362 5.07912 1.57249 7.45379L1.14028 7.20241C2.56503 4.75273 4.7607 2.55818 7.21096 1.1351L7.46207 1.56747Z"
    fill="currentColor"
  />
  <path
    opacity=".5"
    fill-rule="evenodd"
    clip-rule="evenodd"
    d="M6.30407 1.70487C4.51964 2.91063 2.90983 4.52061 1.7043 6.30513L1.28998 6.02524C2.5313 4.18773 4.18673 2.53214 6.02413 1.29059L6.30407 1.70487Z"
    fill="currentColor"
  />
</svg>

<svg xmlns="http://www.w3.org/2000/svg" width="15" height="15" fill="none"><path fill="currentColor" fill-rule="evenodd" d="M.877 7.5a6.623 6.623 0 1 1 13.246 0 6.623 6.623 0 0 1-13.246 0M7.5 1.827a5.673 5.673 0 1 0 0 11.346 5.673 5.673 0 0 0 0-11.346" clip-rule="evenodd"/><path fill="currentColor" fill-rule="evenodd" d="M12.162 3.852c-3.804 1.037-7.273 4.506-8.31 8.31l-.482-.132c1.084-3.974 4.686-7.577 8.66-8.66z" clip-rule="evenodd" opacity=".05"/><path fill="currentColor" fill-rule="evenodd" d="M11.88 3.427C8.035 4.505 4.507 8.034 3.428 11.88l-.481-.134c1.125-4.015 4.785-7.675 8.8-8.8z" clip-rule="evenodd" opacity=".1"/><path fill="currentColor" fill-rule="evenodd" d="M11.52 3.026c-3.83 1.136-7.352 4.657-8.492 8.486l-.48-.143c1.189-3.99 4.839-7.638 8.83-8.823z" clip-rule="evenodd" opacity=".15"/><path fill="currentColor" fill-rule="evenodd" d="M11.047 2.662C7.31 3.877 3.879 7.308 2.663 11.043l-.475-.154C3.453 7 7.004 3.45 10.892 2.186z" clip-rule="evenodd" opacity=".2"/><path fill="currentColor" fill-rule="evenodd" d="M10.52 2.324c-3.6 1.29-6.896 4.585-8.192 8.183l-.47-.169c1.346-3.739 4.754-7.144 8.493-8.485z" clip-rule="evenodd" opacity=".25"/><path fill="currentColor" fill-rule="evenodd" d="M9.902 2.031C6.5 3.395 3.4 6.494 2.034 9.896l-.464-.187c1.417-3.528 4.617-6.728 8.146-8.142z" clip-rule="evenodd" opacity=".3"/><path fill="currentColor" fill-rule="evenodd" d="M9.207 1.789C6.061 3.203 3.211 6.052 1.793 9.197l-.456-.205c1.468-3.257 4.408-6.194 7.665-7.66z" clip-rule="evenodd" opacity=".35"/><path fill="currentColor" fill-rule="evenodd" d="M8.407 1.62c-2.814 1.431-5.35 3.965-6.782 6.778l-.445-.226c1.48-2.908 4.092-5.519 7-6.997z" clip-rule="evenodd" opacity=".4"/><path fill="currentColor" fill-rule="evenodd" d="M7.462 1.567c-2.375 1.38-4.508 3.512-5.89 5.887l-.432-.252c1.425-2.45 3.62-4.644 6.071-6.067z" clip-rule="evenodd" opacity=".45"/><path fill="currentColor" fill-rule="evenodd" d="M6.304 1.705a17.4 17.4 0 0 0-4.6 4.6l-.414-.28a17.9 17.9 0 0 1 4.734-4.734z" clip-rule="evenodd" opacity=".5"/></svg>
